X: 33947
T: Redesdale
R: hornpipe
M: 4/4
K: Gmajor
|:FB|dBAB DFBc|dBAB F2cd|ecAc FAce|gf=ef d2Bc|
dBAB DFBc|dBAB F2cd|ecAc FecA|c2B2 B2:|
|:(3fga|bfdf FBdf|bfdf B2cd|ecAc FAce|gf=ef d2 (3fga|
bfdf FBdf|bfdf B2cd|ecAc FecA|c2B2 B2:|

